X:18987
T:Xiraldilla (CT 127)
R:Xiraldilla
C:Tradicional
S:Msica Tradicional Asturiana, (C) Tello & Tito. Asturies, 2001.
S:http://pagina.de/MusTradAst <telloytito@asturies.org>
N:Xiraldilla, dictada por Andrs Llabona Llabona, de veinticuatro aos, de Torazo, ayuntamiento de Cabranes.
O:Torazo (Cabranes)
A:Asturies
Z:Cancioneru de Torner 127
M:3/8
L:1/8
Q:3/8=80
W:Era morena y graciosa,
W:de amores fuimos hablando.
W:Dime, resalada,
W:yo te dir cuando,
W:que puse el amor
W:en un asturiano.
K:G
|ddd|eeB|d c2|eee|gfe|dBd|dcA|BGc|cBA|BGc|cBA|B2 A|cBA|(B>A)G-|G2 z||
